X: 272
T: Beni Cânımdan Ayırdı
C: Muzaffer İlkar
O: Turkey
F: http://compmusic.upf.edu/node/140
N: hicaz-humayun--sarki--aksak--beni_canimdan--muzaffer_ilkar
N: makam= hicaz-humayun
N: form= sarki
N: usul= aksak = 9/8
M: 9/8
L: 1/16
K: C _7/8B ^c  
Q: 1/4=144
%%MIDI tuningsystem comma53
d2cB c2BA B2AG A2B2 c2 | d2 e^fag =feee dcd2 e2^f2  | 
w:  ARANAĞME  |   | 
g2fe f2ed e2dc dcBA G2 | AB cde2 dccB BAA2 B2c2  | 
w:   |   | 
d2cB c2BA B2AG A2B2 c2 | d2 e^fag =feee dcd2 e2^f2  | 
w:  ARANAĞME  |   | 
g2fe f2ed e2dc dcBA G2 | AB cde2 dccB BAA4z2  | 
w:   |   | 
A4 c2d2 e4 efef ed | e2 g4 feed dcf4ed  | 
w:  *  Be ni  câ nım  |  dan_ a *  *  yır *  dı  *  ah   | 
d4 c3d cBBA A6 | z2 a4 g2^f2 e2ag fede  | \
w:  *  gön lü mü   |  yık tı  te *  mel  | 
d2e4ef edcB A4 GB | 
w:  den   *  SAZ  | 
A4c2 d2e4ef efed  | e2g4fe eddc f4 ed | 
w:  *  Be ni  câ nım  |  dan_ a *  *  yır *  dı  *  ah   | 
d4c3dcB BAA6  | z2a4g2 ^f2e2 agfe de | \
w:  *  gön lü mü   |  yık tı  te *  mel  | 
d2 e4 efed cdg4^fe  | 
w:  den   *  SAZ  | 
e4 e2^f2 g4 g2f2 e2 | e2 a4 g2f3ed6  | \
w:  *  Se ni  sev mek   |  de  suç *  muş  *  ki   | 
z4 c3d d4 z6 | z2 g2f2 e2d2 c2B2 A2dc  | 
w:  bil me dim   |  yan *  dım_ e *  zel  | 
c6cd cBAB c6 | z4dd3cB BAA6  | g2f2 e2d2 c2BA B4 AG | 
w:  den   SAZ  |  Se ni  sev *  *  *  mek   |  de  suç *  *  muş  *  *  ki   | 
G4G3AA4z6  | z2e2 d2c2 B2A2 G2A2 BA | \
w:  *  bil me dim   |  yan *  dım_ e *  zel  | 
A6 a=bag ^fga4ab  | 
w:  den   SAZ  | 
a4 z2a=b ag^f^e f2g2 fe | ^f4gg3=f2 e2fe dddc  | 
w:  *  Be ni  sa *  *  *  na   |  *  se ni  ba *  na   | 
d4 e2f2 f2fe f4 e2 | z2 g4 g2f2 e2fe dcde  | \
w:  *  ka vuş tur *  *  sun   |  yâ rab  tez  *  el  | 
d2e4a=b agfg a4 gb | 
w:  den   *  SAZ  | 
a4z2 a=bag ^f^ef2 g2fe  | ^f4 gg3 =f2e2 fedd dc | 
w:  *  Be ni  sa *  *  *  na   |  *  se ni  ba *  na   | 
d4e2 f2f2 fef4e2  | z2g4g2 f2e2 fedc de | \
w:  *  ka vuş tur *  *  sun   |  yâ rab  tez  *  el  | 
d2 e4 efed cdg4^fe  | 
w:  den   *  SAZ  | 
e4 e2^f2 g4 g2f2 e2 | e2 a4 g2f3ed6  | \
w:  *  Se ni  sev mek   |  de  suç *  muş  *  ki   | 
z4 c3d d4 z6 | z2 g2f2 e2d2 c2B2 A2dc  | 
w:  bil me dim   |  yan *  dım_ e *  zel  | 
c6cd cBAB c6 | z4dd3cB BAA6  | g2f2 e2d2 c2BA B4 AG | 
w:  den   SAZ  |  Se ni  sev *  *  *  mek   |  de  suç *  *  muş  *  *  ki   | 
G4G3AA4z6  | z2e2 d2c2 B2A2 G2A2 BA | \
w:  *  bil me dim   |  yan *  dım_ e *  zel  | 
A6 efed cBA4z2  | 
w:  den   SAZ KARAR  | 
|


